X:1
T:My Mother Is Praying for Me
T:J. H. Weber
T:My Mother Is Praying for Me
T:Public Domain
T:Public Domain
C:J. H. Weber
Z:Public Domain
%%score ( 1 2 ) ( 3 4 )
L:1/8
M:6/8
K:Ab
V:1 treble 
V:2 treble 
V:3 bass 
V:4 bass 
V:1
"^Solo" E | [Ec]>[DB][Ec] [EA]<[EA][EA] | [FB]>[FA][FA] [FA]2 [CE] | E<[EA][EA] [EA]>[EB][Ec] | %4
w: 1.~I|by my mo- ther, her hand|on my head, And ut-|tered my prayer at her knee;|
w: 2.~In|ness and sin I have wan-|dered a- way, Nor tried|from temp- ta- tion to flee;|
w: 3.~I’m|ry of sin- ning; I turn|to the cross, And its|light shin- ing o’er me I~see;|
 [EB]3- [EB]2 E | [Ec]2 [DB]/[Ec]/ [EA]2 [EA]/[EA]/ | [FB][DF][DF] [=DB]2 [DA]/[DA]/ | %7
w: far, * far|way from her side I have|strayed But my mo- ther is|
w: down * in|heart I could ne- ver for-|get That my mo- ther was|
w: go * to|Sav- ior and thank Him a-|gain, That a mo- ther was|
 [EA]<[EG]F [EG][Ec]>[DB] | [CA]3- [CA]2 ||"^Refrain" E | [Ec]>[DB][Ec] [EA]<[EA][DB] | %11
w: pray- ing for me. * *||||
w: pray- ing for me. My mo-|is *|pray-|for me, My mo- ther is|
w: pray- ing for me. * *||||
 (C2 C [CE]2) [CA] | [Ec]>[DB][Ec] [EA]<[EG][EA] | (E2 E [EB]2) E | %14
w: |||
w: pray- * * ing|me, For sure- ly I know|that * * wher-|
w: |||
 [Ec]>[DB][Ec] [FA]2 [EA]/[EA]/ | [FB]<[DF][DF] [=DB]2 [DA] | [EA]<[EG]F [EG][Ec]>[DB] | %17
w: |||
w: I go, My mo- ther is|pray- ing for me. *||
w: |||
 (C2 D [CA]2) |] %18
w: |
w: |
w: |
V:2
 E | x6 | x6 | E/ x11/2 | x5 E | x6 | x6 | x2 F x3 | x5 || E | x6 | c3 x3 | x6 | B3- E x2 | x6 | %15
w: knelt|||Now|a-|||||||||||
w: dark-|||But|my|||ther||ing||for||ev- er||
w: wea-|||I’ll|my|||||||||||
 x6 | x2 F x3 | A3- x2 |] %18
w: |||
w: |||
w: |||
V:3
 E, | [A,,A,]>[A,,A,][A,,A,] [A,,C]<[A,,C][C,A,] | [D,A,]>[D,A,][D,A,] [D,A,]2 [D,A,] | %3
 [C,A,]<[C,A,][C,A,] [C,A,]>[C,G,][A,,A,] | [E,G,]3- [E,G,]2 E, | %5
 [A,,A,]2 [A,,A,]/[A,,A,]/ [C,A,]2 [C,A,]/[C,A,]/ | [D,A,][D,A,][D,A,] [B,,B,]2 [B,,B,]/[B,,B,]/ | %7
 [E,C]<[E,B,][E,A,] [E,B,][E,G,]>[E,G,] | [A,,A,]3- [A,,A,]2 || E, | %10
 [A,,A,]>[A,,A,][A,,A,] [C,A,]<[C,A,][E,G,] | (A,2 A, [A,,A,]2) [A,,A,] | %12
 [A,,A,]>[A,,A,][A,,A,] [C,A,]<[C,A,][C,A,] | (E,2- G, [E,G,]2) E, | %14
 [A,,A,]>[A,,A,][A,,A,] [C,A,]2 [C,A,]/[C,A,]/ | [D,A,]<[D,A,][D,A,] [B,,B,]2 [B,,B,] | %16
 [E,C]<[E,B,][E,A,] [E,B,][E,G,]>[E,G,] | (A,2 F, [A,,E,]2) |] %18
V:4
 E, | x6 | x6 | x6 | x5 E, | x6 | x6 | x6 | x5 || E, | x6 | A,,3- x3 | x6 | G,3 E, x2 | x6 | x6 | %16
 x6 | A,,3- x2 |] %18

